icons/desktop/16/svg/window-firefox-16.svg

<svg width="16" height="16" viewBox="0 0 16 16" fill="none" xmlns="http://www.w3.org/2000/svg">
<g clip-path="url(#clip0_8069_32713)">
<path d="M13.2705 7.00502C13.3025 7.01302 13.3307 7.03459 13.3467 7.06459C13.4187 7.19862 13.5395 7.4862 13.7744 7.79115C13.8916 7.9433 14.4738 8.57352 14.7197 8.86049C14.9297 9.10647 15.3061 9.73426 15.3291 9.8683C15.2351 9.33231 15.0938 9.04719 15.0508 8.95619C15.0388 8.93127 15.024 8.89818 15.0605 8.86732C15.0875 8.84432 15.1304 8.85911 15.1494 8.87611C15.8723 9.53309 16.0431 10.4504 15.9951 11.4523C15.9461 12.4603 14.9349 15.0031 12.0889 15.0031L12.0859 15.0001C9.38197 15.0001 8.17589 12.7902 8.08789 11.6212C7.98393 10.2413 8.48729 8.92024 9.44727 8.32826C9.48422 8.30541 9.52944 8.30533 9.56836 8.32728C9.6072 8.34932 9.6299 8.3908 9.62891 8.4347C9.62394 8.81647 9.66518 9.09417 9.74414 9.20716C9.77318 9.1831 9.82612 9.13009 9.87402 9.08119C10.038 8.91719 10.2854 8.66975 10.5254 8.55677C10.5653 8.5379 10.6096 8.54172 10.6445 8.56556C10.6785 8.58851 10.6982 8.62718 10.6963 8.66908C10.6723 9.08408 10.6864 9.38614 10.7344 9.45814C10.8904 9.69412 11.4337 10.0556 11.7617 10.2316C11.9162 10.3143 12.0186 10.323 12.04 10.3439C12.059 10.3639 12.06 10.3947 12.042 10.4337C11.9907 10.5439 11.7826 10.8068 11.6338 10.8068H11.5264C11.2114 10.8192 10.3663 10.9313 10.2881 11.464C10.2551 11.689 10.3794 12.0176 10.6084 12.2726C10.9884 12.6944 11.5444 12.9274 12.1162 12.9074C12.9131 12.8753 13.5144 12.3381 13.6523 11.6242C13.7922 10.9033 13.3572 10.3 13.1572 10.1281C13.1312 10.1051 13.0972 10.0683 13.1182 9.99427C13.1472 9.8934 13.291 9.91755 13.377 9.94154C13.4739 9.96853 13.7408 10.0611 13.7871 10.129C13.1291 9.13919 12.2096 9.15115 11.9766 9.16615C11.9486 9.16802 11.9126 9.15775 11.8887 9.13685C11.867 9.11793 11.8536 9.09135 11.8516 9.06166C11.8306 8.74766 12.0525 8.19487 12.3555 7.80287C12.6553 7.41532 13.0287 7.1296 13.1748 7.02552C13.2027 7.00563 13.2377 6.9982 13.2705 7.00502Z" fill="black"/>
<path fill-rule="evenodd" clip-rule="evenodd" d="M2.20801 1.24623C5.364 0.91923 8.61349 0.917275 11.7715 1.24427C13.0422 1.37548 13.9999 2.43538 14 3.71009V5.98842C13.865 5.89842 13.7167 5.82622 13.5557 5.78822L13.415 5.75502L13.2441 5.75209C12.9781 5.75209 12.723 5.83463 12.5 5.97963V5.50013H1.5V9.29213C1.5 9.79508 1.87989 10.2137 2.38281 10.2658C3.86875 10.4198 5.37588 10.4952 6.88281 10.4992C6.82983 10.893 6.80987 11.3011 6.84082 11.7179C6.84781 11.8088 6.86197 11.9052 6.87695 12.0001C5.32697 11.9961 3.7635 11.916 2.22852 11.757C0.957775 11.6257 0 10.566 0 9.29115V3.71009C0.000144784 2.43722 0.949104 1.37822 2.20801 1.24623ZM11.6172 2.73744C8.56027 2.42045 5.41518 2.42242 2.36426 2.73939C1.87135 2.79138 1.50014 3.20822 1.5 3.71009V4.00013H12.5V3.71009C12.4999 3.20729 12.12 2.78951 11.6172 2.73744Z" fill="black"/>
</g>
<defs>
<clipPath id="clip0_8069_32713">
<rect width="16" height="16" fill="white"/>
</clipPath>
</defs>
</svg>

<!-- This Source Code Form is subject to the terms of the Mozilla Public
   - License, v. 2.0. If a copy of the MPL was not distributed with this
   - file, You can obtain one at http://mozilla.org/MPL/2.0/. -->
<svg xmlns="http://www.w3.org/2000/svg" width="16" height="16" fill="context-fill" fill-opacity="context-fill-opacity" viewBox="0 0 16 16">
    <g clip-path="url(#clip0_8069_32713)">
        <path d="M13.27 7.005a.12.12 0 0 1 .077.06c.072.134.193.421.427.726.118.152.7.783.946 1.07.21.245.586.873.61 1.007-.095-.536-.236-.82-.28-.912-.011-.025-.026-.058.01-.089.027-.023.07-.008.09.01.722.656.893 1.573.845 2.575-.049 1.008-1.06 3.551-3.906 3.551L12.086 15c-2.704 0-3.91-2.21-3.998-3.379-.104-1.38.4-2.7 1.36-3.293a.12.12 0 0 1 .12 0 .12.12 0 0 1 .06.107c-.004.381.037.66.116.772.03-.024.082-.077.13-.126.164-.164.411-.411.651-.524a.12.12 0 0 1 .171.112c-.024.415-.01.717.038.79.156.235.7.597 1.028.773.154.082.257.091.278.112q.029.03.002.09c-.051.11-.26.373-.408.373h-.108c-.315.012-1.16.124-1.238.657-.033.225.091.554.32.809.38.421.936.654 1.508.634.797-.032 1.398-.569 1.536-1.283.14-.72-.295-1.324-.495-1.496a.12.12 0 0 1-.039-.134c.03-.1.173-.076.259-.052.097.027.364.12.41.187-.658-.99-1.577-.978-1.81-.963a.13.13 0 0 1-.088-.03.1.1 0 0 1-.037-.074c-.021-.314.2-.867.503-1.26.3-.387.674-.672.82-.776a.12.12 0 0 1 .095-.021" />
        <path fill-rule="evenodd" d="M2.208 1.246a46.7 46.7 0 0 1 9.564-.002A2.475 2.475 0 0 1 14 3.71v2.278a1.4 1.4 0 0 0-.444-.2l-.141-.033-.17-.003c-.267 0-.522.083-.745.228V5.5h-11v3.792c0 .503.38.922.883.974 1.486.154 2.993.23 4.5.233a6 6 0 0 0-.042 1.219c.007.09.021.187.036.282a47 47 0 0 1-4.648-.243A2.474 2.474 0 0 1 0 9.291v-5.58c0-1.274.95-2.333 2.208-2.465m9.41 1.491a45 45 0 0 0-9.254.002.97.97 0 0 0-.864.971V4h11v-.29c0-.503-.38-.92-.883-.973" clip-rule="evenodd" />
    </g>
</svg>
